assets/img/braze_icons/log-in-02.svg

<svg fill="none" height="24" viewBox="0 0 24 24" width="24" xmlns="http://www.w3.org/2000/svg"><g fill="#801ed7"><path d="m9.86239 1.99993 6.37891.00004c.8049-.00001 1.4693-.00002 2.0105.0442.5621.04592 1.0788.14449 1.5641.39178.7527.38349 1.3646.99541 1.7481 1.74806.2473.48534.3459 1.00204.3918 1.56414.0442.54119.0442 1.20554.0442 2.0105v8.48265c0 .805 0 1.4693-.0442 2.0105-.0459.5621-.1445 1.0788-.3918 1.5641-.3835.7527-.9954 1.3646-1.7481 1.7481-.4853.2473-1.002.3459-1.5641.3918-.5412.0442-1.2055.0442-2.0105.0442h-6.3789c-.79539.0005-1.38605.0008-1.8977-.1363-1.38037-.3699-2.45856-1.4481-2.82843-2.8284-.1371-.5117-.13678-1.1024-.13634-1.8977l.00004-.1376c0-.5523.44772-1 1-1 .55229 0 1 .4477 1 1 0 .9943.00859 1.2953.06815 1.5176.18494.6902.72403 1.2293 1.41422 1.4142.22227.0596.52328.0682 1.51763.0682h6.20003c.8566 0 1.4388-.0008 1.8889-.0376.4385-.0358.6627-.1007.8191-.1804.3763-.1918.6822-.4977.874-.874.0797-.1564.1446-.3806.1804-.8191.0368-.4501.0376-1.0323.0376-1.8889v-8.40003c0-.85658-.0008-1.43887-.0376-1.88896-.0358-.43841-.1007-.66262-.1804-.81902-.1918-.37632-.4977-.68228-.874-.87403-.1564-.07969-.3806-.14461-.8191-.18043-.4501-.03678-1.0323-.03756-1.8889-.03756h-6.20003c-.99435 0-1.29536.00859-1.51763.06815-.69019.18494-1.22928.72403-1.41422 1.41422-.05956.22227-.06815.52328-.06815 1.51763 0 .55229-.44771 1-1 1-.55228 0-1-.44771-1-1l-.00004-.13758c-.00044-.79538-.00076-1.38604.13634-1.89769.36987-1.38037 1.44806-2.45856 2.82843-2.82843.51165-.1371 1.10231-.13678 1.89769-.13634z"/><path d="m11.2929 7.29289c.3905-.39052 1.0237-.39052 1.4142 0l4 4.00001c.3905.3905.3905 1.0237 0 1.4142l-4 4c-.3905.3905-1.0237.3905-1.4142 0s-.3905-1.0237 0-1.4142l2.2929-2.2929h-10.5858c-.55228 0-1-.4477-1-1s.44772-1 1-1h10.5858l-2.2929-2.29289c-.3905-.39053-.3905-1.02369 0-1.41422z"/></g></svg>

<svg width="24" height="24" viewBox="0 0 24 24" fill="none" xmlns="http://www.w3.org/2000/svg">
<path d="M9.86239 1.99993L16.2413 1.99997C17.0462 1.99996 17.7106 1.99995 18.2518 2.04417C18.8139 2.09009 19.3306 2.18866 19.8159 2.43595C20.5686 2.81944 21.1805 3.43136 21.564 4.18401C21.8113 4.66935 21.9099 5.18605 21.9558 5.74815C22 6.28934 22 6.95369 22 7.75865V16.2413C22 17.0463 22 17.7106 21.9558 18.2518C21.9099 18.8139 21.8113 19.3306 21.564 19.8159C21.1805 20.5686 20.5686 21.1805 19.8159 21.564C19.3306 21.8113 18.8139 21.9099 18.2518 21.9558C17.7106 22 17.0463 22 16.2413 22L9.8624 22C9.06701 22.0005 8.47635 22.0008 7.9647 21.8637C6.58433 21.4938 5.50614 20.4156 5.13627 19.0353C4.99917 18.5236 4.99949 17.9329 4.99993 17.1376L4.99997 17C4.99997 16.4477 5.44769 16 5.99997 16C6.55226 16 6.99997 16.4477 6.99997 17C6.99997 17.9943 7.00856 18.2953 7.06812 18.5176C7.25306 19.2078 7.79215 19.7469 8.48234 19.9318C8.70461 19.9914 9.00562 20 9.99997 20H16.2C17.0566 20 17.6388 19.9992 18.0889 19.9624C18.5274 19.9266 18.7516 19.8617 18.908 19.782C19.2843 19.5902 19.5902 19.2843 19.782 18.908C19.8617 18.7516 19.9266 18.5274 19.9624 18.0889C19.9992 17.6388 20 17.0566 20 16.2V7.79997C20 6.94339 19.9992 6.3611 19.9624 5.91101C19.9266 5.4726 19.8617 5.24839 19.782 5.09199C19.5902 4.71567 19.2843 4.40971 18.908 4.21796C18.7516 4.13827 18.5274 4.07335 18.0889 4.03753C17.6388 4.00075 17.0566 3.99997 16.2 3.99997H9.99997C9.00562 3.99997 8.70461 4.00856 8.48234 4.06812C7.79215 4.25306 7.25306 4.79215 7.06812 5.48234C7.00856 5.70461 6.99997 6.00562 6.99997 6.99997C6.99997 7.55226 6.55226 7.99997 5.99997 7.99997C5.44769 7.99997 4.99997 7.55226 4.99997 6.99997L4.99993 6.86239C4.99949 6.06701 4.99917 5.47635 5.13627 4.9647C5.50614 3.58433 6.58433 2.50614 7.9647 2.13627C8.47635 1.99917 9.06701 1.99949 9.86239 1.99993Z" fill="#801ED7"/>
<path d="M11.2929 7.29289C11.6834 6.90237 12.3166 6.90237 12.7071 7.29289L16.7071 11.2929C17.0976 11.6834 17.0976 12.3166 16.7071 12.7071L12.7071 16.7071C12.3166 17.0976 11.6834 17.0976 11.2929 16.7071C10.9024 16.3166 10.9024 15.6834 11.2929 15.2929L13.5858 13H3C2.44772 13 2 12.5523 2 12C2 11.4477 2.44772 11 3 11H13.5858L11.2929 8.70711C10.9024 8.31658 10.9024 7.68342 11.2929 7.29289Z" fill="#801ED7"/>
</svg>
